X: 3
T:When Johnny Comes Marching Home
C:Traditional
M:6/8
L:1/8
K:Bbmaj
"Gm"D|:DGG G2 A|B2 A B2 G|"Bb"F3- F2D|F3- F2D|"Gm"DGG G2 A|B2 A B2 c|d3- d2B|d3- d2B|
"Gm"d2 d dcB|"F"c2 c c2 A|"Gm"B2 B BAG|"Dm"A2 A ABc|"Gm"d3 c3 |B3 A3|DGG G2 F|[1 G3- G2 D:|][2 G3- G3|]

